src/assets/icons/cart-plus.svg

<svg width="14" height="14" viewBox="0 0 14 14" fill="none" xmlns="http://www.w3.org/2000/svg">
<g id="cart-plus">
<g clip-path="url(#clip0_156_4525)">
<path id="Vector" fill-rule="evenodd" clip-rule="evenodd" d="M0.6 0.399994C0.268629 0.399994 0 0.668623 0 0.999994C0 1.33136 0.268629 1.59999 0.6 1.59999H1.69925L3.20968 9.90732C3.26155 10.1926 3.51003 10.4 3.8 10.4H11.8C12.0753 10.4 12.3153 10.2126 12.3821 9.94551L13.9821 3.54551C14.0269 3.36627 13.9866 3.17638 13.8729 3.03075C13.7592 2.88512 13.5848 2.79999 13.4 2.79999H3.13711L2.79032 0.892662C2.73845 0.607368 2.48997 0.399994 2.2 0.399994H0.6ZM4.30074 9.19999L3.35529 3.99999H12.6315L11.3315 9.19999H4.30074ZM7.91201 4.39999C8.24338 4.39999 8.51201 4.66862 8.51201 4.99999V5.99999H9.51201C9.84338 5.99999 10.112 6.26862 10.112 6.59999C10.112 6.93136 9.84338 7.19999 9.51201 7.19999H8.51201V8.19999C8.51201 8.53136 8.24338 8.79999 7.91201 8.79999C7.58064 8.79999 7.31201 8.53136 7.31201 8.19999V7.19999H6.31201C5.98064 7.19999 5.71201 6.93136 5.71201 6.59999C5.71201 6.26862 5.98064 5.99999 6.31201 5.99999H7.31201V4.99999C7.31201 4.66862 7.58064 4.39999 7.91201 4.39999ZM5.2 11.2C4.53726 11.2 4 11.7372 4 12.4C4 13.0627 4.53726 13.6 5.2 13.6C5.86274 13.6 6.4 13.0627 6.4 12.4C6.4 11.7372 5.86274 11.2 5.2 11.2ZM9.2 12.4C9.2 11.7372 9.73725 11.2 10.4 11.2C11.0627 11.2 11.6 11.7372 11.6 12.4C11.6 13.0627 11.0627 13.6 10.4 13.6C9.73725 13.6 9.2 13.0627 9.2 12.4Z" fill="black"/>
</g>
</g>
<defs>
<clipPath id="clip0_156_4525">
<rect width="14" height="14" fill="white"/>
</clipPath>
</defs>
</svg>

<svg xmlns="http://www.w3.org/2000/svg" fill="none" viewBox="0 0 14 14"><g clip-path="url(#a)"><path fill="#000" fill-rule="evenodd" d="M.6.4a.6.6 0 1 0 0 1.2h1.1l1.51 8.307a.6.6 0 0 0 .59.493h8a.6.6 0 0 0 .582-.454l1.6-6.4A.6.6 0 0 0 13.4 2.8H3.137L2.79.893A.6.6 0 0 0 2.2.4zm3.7 8.8L3.356 4h9.277l-1.3 5.2zm3.612-4.8a.6.6 0 0 1 .6.6v1h1a.6.6 0 0 1 0 1.2h-1v1a.6.6 0 0 1-1.2 0v-1h-1a.6.6 0 0 1 0-1.2h1V5a.6.6 0 0 1 .6-.6M5.2 11.2a1.2 1.2 0 1 0 0 2.4 1.2 1.2 0 0 0 0-2.4m4 1.2a1.2 1.2 0 1 1 2.4 0 1.2 1.2 0 0 1-2.4 0" clip-rule="evenodd"/></g><defs><clipPath id="a"><path fill="#fff" d="M0 0h14v14H0z"/></clipPath></defs></svg>
